X:6
T:Jockie drucken bauble
Z:Jack Campin - http://www.campin.me.uk
S:Blaikie MS (NLS MS.1578) p2, Blaikie #5
M:C|
L:1/8
V:1 midi program 1 74
V:2 midi program 1 46 bass middle = d transpose -24
Q:1/2=120
K:G
[V:1] F4   B4   |D3  E F4|B,2E2 E2F2|G4  F2E2 |
[V:2] f4   b4   |d3  e f4|g4    g2f2|e4  B2e2 |
%
[V:1] F4   B4   |D3  E F4|B,2E2 E2F2|G4  F2E2||
[V:2] f4   b4   |d3  e f4|g4    g2f2|e4  B2e2||
%
[V:1] F4   d4   |ed^cB d4|B2 e2 e2f2|g4  f2e2 |
[V:2] d4   d4   |g4    f4|g2 e2 g2f2|e4 ^d2e2 |
%
[V:1] d3^c B2d2 |D3  E F4|e2 E2 E2F2|G4  F2E2|]
[V:2] f4  [d4g4]|f3  e d4|g4    g2f2|e4  B2e2|]
W:Transcription (c) Jack Campin 2009, no mirroring or republication without permission

